!!!OTL: Die scheintote Braut Wer Wunderding will hoeren an,
!!!ARE: Europa, Mitteleuropa, Oesterreich, Niederoesterreich, Maria Taferl
!!!YOR: 5, S. 242
!!    1819 aufgezeichnet
!!!SCT: Q0113
!!!YEM: Copyright 1995, estate of Helmut Schaffrath.
**kern
*ICvox
*Ivox
*M4/4
*k[]
*C:
{4g
=1
2a
2g
=2
2cc
2dd
=3
2ee
4dd
4cc
=4
2.cc}
{4g
=5
2cc
2g
=6
2a
2cc
=7
2g
4f
4e
=8
2.e}
{4g
=9
2a
2b
=10
2cc
2dd
=11
1a
=12
2g}
{2g
=13
2a
2g
=14
2a
2cc
=15
2g
4.g
8f
=16
2f}
{2a
=17
2a
2cc
=18
2g
2e
=19
2g
4.f
8e
=20
2.e}
{4g
=21
2a
2g
=22
2cc
4f
4e
=23
2.d
4c
=24
2.c}
==
!!!AGN: Ballade, Treue - Geloebnis, Schein - Tod, Rettung; Zeitungs - Lied
!!!ONB: ESAC (Essen Associative Code) Database: BALLADE
!!!AMT: simple quadruple
!!!AIN: vox
!!!EED: Helmut Schaffrath
!!!EEV: 1.0
*-
